components/icon/svg/24/communication_conversation.svg

<?xml version="1.0" encoding="UTF-8"?>
<svg width="24px" height="24px" viewBox="0 0 24 24" version="1.1" xmlns="http://www.w3.org/2000/svg" xmlns:xlink="http://www.w3.org/1999/xlink">
    <!-- Generator: Sketch 64 (93537) - https://sketch.com -->
    <title>ic-db_communication_conversation_24</title>
    <desc>Created with Sketch.</desc>
    <g id="Symbols:Icon" stroke="none" stroke-width="1" fill="none" fill-rule="evenodd">
        <g id="24dp-Icon/Communication/Conversation" fill="#282D37">
            <path d="M3.0312,22 C3.25,22 3.515,21.9225 3.7188,21.7187 L7.1326,18.3026 C7.3198,18.1154 7.5694,18.0218 7.819,18.0218 L13.1544,18.0218 C14.7145,18.0218 15.9937,16.6802 15.9937,14.9953 C15.9937,14.4337 15.5304,14 15,14 C14.4384,14 13.9969,14.4649 13.9969,14.9953 C13.9969,15.6505 13.4977,16.025 12.9984,16.025 L7.663,16.025 C6.9454,16.025 6.2278,16.3682 5.6974,16.8986 L4,18.5937 L4,11.0312 C4,10.3437 4.5,10 5,10 C5.6562,10 6.0094,9.5039 6.0094,9.0359 C6.0094,8.4743 5.5625,8 5,8 C3.2188,8 2,9.375 2,11.0312 L2,21.0312 L2,21.0937 C2.0625,21.6562 2.5312,22 3.0312,22 Z M19,2 C20.6562,2 22,3.3125 22,4.9688 L22,4.9688 L22,15 C22,15.5938 21.5312,16 20.9688,16 C20.75,16 20.5,15.9062 20.2812,15.7188 L20.2812,15.7188 L16.8674,12.312 C16.6802,12.1248 16.4306,12 16.181,12 L16.181,12 L11.0016,12 C9.3479,12 8.0062,10.6583 8.0062,9.0359 L8.0062,9.0359 L8,4.9688 C8,3.3125 9.3438,2 11,2 L11,2 Z M19.0938,3.9688 L11,3.9688 C10.4375,3.9688 10,4.4375 10,4.9688 L10,4.9688 L10.0031,9.0359 C10.0031,9.5663 10.4399,10.0031 11.0016,10.0031 L11.0016,10.0031 L16.181,10.0031 C16.961,10.0031 17.7098,10.3463 18.3026,10.8768 L18.3026,10.8768 L20,12.5938 L20,4.9688 C20,4.4688 19.625,3.9688 19.0938,3.9688 L19.0938,3.9688 Z" id="🎨-Color"></path>
        </g>
    </g>
</svg>

<svg width="24" height="24" xmlns="http://www.w3.org/2000/svg"><path d="M3.031 22a.98.98 0 00.688-.281l3.414-3.416a.968.968 0 01.686-.281h5.335c1.56 0 2.84-1.342 2.84-3.027A.999.999 0 0015 14c-.562 0-1.003.465-1.003.995 0 .655-.5 1.03-.999 1.03H7.663c-.718 0-1.435.343-1.966.874L4 18.594V11.03C4 10.344 4.5 10 5 10c.656 0 1.01-.496 1.01-.964C6.01 8.474 5.562 8 5 8c-1.781 0-3 1.375-3 3.031v10.063c.063.562.531.906 1.031.906zM19 2c1.656 0 3 1.313 3 2.969V15c0 .594-.469 1-1.031 1-.219 0-.469-.094-.688-.281l-3.414-3.407c-.187-.187-.436-.312-.686-.312h-5.18c-1.653 0-2.995-1.342-2.995-2.964L8 4.969C8 3.312 9.344 2 11 2zm.094 1.969H11c-.563 0-1 .469-1 1l.003 4.067c0 .53.437.967.999.967h5.179c.78 0 1.529.343 2.122.874L20 12.594V4.969c0-.5-.375-1-.906-1z" fill="#282D37" fill-rule="evenodd"/></svg>
